X: 156
T: South Missouri
B: canberra pickers and fiddlers
B: old time tunes update
B: tunes
M:2/4
L:1/16
R: reel
Q: 1/4=120
K:D
V:1 
|:(ef2)(a fe)dc|B2 g2 B2 g2|(ef2)(g fe)dA|c2 e2 c2 e2|!
(ef2)(a fe)dc|B2 g2 B2 g2|(ea2)b (af)ed|(cA)(Bc) d2FG:|!
(AB)AG (FD)FA|(BA)Bc (de)dB|(Ac)dB A(GF)(D|ED)CE A,2FG|!
(AB)AG (FD)FA|(BA)Bc d2d(f|e)de(f gf)ed|(cA)(Bc) d4:|!
% abcbook-tune_id 67a7d9eca4bdb4e9baf0a184
% abcbook-tune_composer_id 
% abcbook-link-0 https://www.youtube.com/watch?v=VXwThH7gfc8
% abcbook-link-title-0 South Missouri
% abcbook-link-start-at-0 9
% abcbook-boost 0
% abcbook-difficulty 0
% abcbook-tags old time tunes
% abcbook-tablature 
% abcbook-transpose 
% abcbook-tuning ADAE
% abcbook-lastupdated 1739238934043
% abcbook-src-url 
% abcbook-soundfonts 
% abcbook-repeats 1


